client/public/img/guns/gun-m134-01.svg

<?xml version="1.0" encoding="UTF-8"?>
<!DOCTYPE svg PUBLIC "-//W3C//DTD SVG 1.1//EN" "http://www.w3.org/Graphics/SVG/1.1/DTD/svg11.dtd">
<svg xmlns="http://www.w3.org/2000/svg" version="1.1" width="96px" height="264px" style="shape-rendering:geometricPrecision; text-rendering:geometricPrecision; image-rendering:optimizeQuality; fill-rule:evenodd; clip-rule:evenodd" xmlns:xlink="http://www.w3.org/1999/xlink">
<g><path style="opacity:1" fill="#030202" d="M 30.5,-0.5 C 31.8333,-0.5 33.1667,-0.5 34.5,-0.5C 35.5,2.16667 36.5,2.16667 37.5,-0.5C 38.8333,-0.5 40.1667,-0.5 41.5,-0.5C 42.5,2.16667 43.5,2.16667 44.5,-0.5C 45.8333,-0.5 47.1667,-0.5 48.5,-0.5C 49.5,2.16667 50.5,2.16667 51.5,-0.5C 53.1667,-0.5 54.8333,-0.5 56.5,-0.5C 56.8212,1.04814 57.8212,1.71481 59.5,1.5C 59.4533,6.91296 60.12,12.2463 61.5,17.5C 61.087,20.2321 60.4203,22.8987 59.5,25.5C 60.4203,28.1013 61.087,30.7679 61.5,33.5C 58.8879,44.7687 58.8879,55.9354 61.5,67C 59.6775,82.7731 59.0109,98.6064 59.5,114.5C 66.8333,114.5 74.1667,114.5 81.5,114.5C 81.5,123.5 81.5,132.5 81.5,141.5C 79.5,141.5 77.5,141.5 75.5,141.5C 75.5,150.833 75.5,160.167 75.5,169.5C 73.8333,169.5 72.1667,169.5 70.5,169.5C 71.7022,173.048 72.3689,176.715 72.5,180.5C 78.5933,180.139 84.5933,180.639 90.5,182C 92.8257,183.805 94.4923,185.972 95.5,188.5C 95.5,193.833 95.5,199.167 95.5,204.5C 93.9396,207.408 91.6063,209.575 88.5,211C 83.1771,211.499 77.8437,211.666 72.5,211.5C 72.5,213.5 72.5,215.5 72.5,217.5C 66.8236,217.334 61.1569,217.501 55.5,218C 56.2106,219.255 57.044,220.421 58,221.5C 58.4999,235.496 58.6666,249.496 58.5,263.5C 48.5,263.5 38.5,263.5 28.5,263.5C 28.5,258.833 28.5,254.167 28.5,249.5C 26.5,249.5 24.5,249.5 22.5,249.5C 22.5,247.833 22.5,246.167 22.5,244.5C 24.5,244.5 26.5,244.5 28.5,244.5C 28.3336,236.826 28.5003,229.159 29,221.5C 29.956,220.421 30.7894,219.255 31.5,218C 28.854,217.503 26.1873,217.336 23.5,217.5C 23.5,219.167 23.5,220.833 23.5,222.5C 15.5,222.5 7.5,222.5 -0.5,222.5C -0.5,204.833 -0.5,187.167 -0.5,169.5C 3.83333,169.5 8.16667,169.5 12.5,169.5C 12.5,167.833 12.5,166.167 12.5,164.5C 11.5,164.5 10.5,164.5 9.5,164.5C 10.469,156.866 11.1357,149.199 11.5,141.5C 9.5,141.5 7.5,141.5 5.5,141.5C 5.5,140.167 5.5,138.833 5.5,137.5C 4.5,137.5 3.5,137.5 2.5,137.5C 2.5,135.167 2.5,132.833 2.5,130.5C 3.5,130.5 4.5,130.5 5.5,130.5C 5.5,125.167 5.5,119.833 5.5,114.5C 12.8333,114.5 20.1667,114.5 27.5,114.5C 27.6666,100.496 27.4999,86.496 27,72.5C 25.9123,70.7125 25.4123,68.7125 25.5,66.5C 28.1272,55.603 28.1272,44.603 25.5,33.5C 25.913,30.7679 26.5797,28.1013 27.5,25.5C 26.5797,22.8987 25.913,20.2321 25.5,17.5C 26.88,12.2463 27.5467,6.91296 27.5,1.5C 29.1788,1.71481 30.1788,1.04814 30.5,-0.5 Z"/></g>
<g><path style="opacity:1" fill="#393a3a" d="M 42.5,9.5 C 43.5862,9.61998 44.2528,10.2867 44.5,11.5C 44.1667,12.1667 43.8333,12.8333 43.5,13.5C 42.5713,12.3112 42.238,10.9778 42.5,9.5 Z"/></g>
<g><path style="opacity:1" fill="#3a3b3c" d="M 35.5,22.5 C 36.5,22.5 37.5,22.5 38.5,22.5C 38.5,24.5 38.5,26.5 38.5,28.5C 37.5,28.5 36.5,28.5 35.5,28.5C 35.5,26.5 35.5,24.5 35.5,22.5 Z"/></g>
<g><path style="opacity:1" fill="#434443" d="M 42.5,22.5 C 43.6935,22.9704 44.3601,23.9704 44.5,25.5C 44.1667,26.5 43.8333,27.5 43.5,28.5C 42.5344,26.604 42.2011,24.604 42.5,22.5 Z"/></g>
<g><path style="opacity:1" fill="#3a3b3c" d="M 48.5,22.5 C 49.5,22.5 50.5,22.5 51.5,22.5C 51.5,24.5 51.5,26.5 51.5,28.5C 50.5,28.5 49.5,28.5 48.5,28.5C 48.5,26.5 48.5,24.5 48.5,22.5 Z"/></g>
<g><path style="opacity:1" fill="#2d2f2d" d="M 29.5,32.5 C 38.8571,32.1684 48.1904,32.5017 57.5,33.5C 52.8333,33.8333 48.1667,34.1667 43.5,34.5C 38.4492,34.4933 33.7825,33.8266 29.5,32.5 Z"/></g>
<g><path style="opacity:1" fill="#353637" d="M 35.5,37.5 C 36.5,37.5 37.5,37.5 38.5,37.5C 38.5,45.1667 38.5,52.8333 38.5,60.5C 37.5,60.5 36.5,60.5 35.5,60.5C 35.5,52.8333 35.5,45.1667 35.5,37.5 Z"/></g>
<g><path style="opacity:1" fill="#424242" d="M 42.5,37.5 C 43.8232,40.9377 44.4898,44.771 44.5,49C 44.1667,52.8333 43.8333,56.6667 43.5,60.5C 42.5025,52.8622 42.1692,45.1955 42.5,37.5 Z"/></g>
<g><path style="opacity:1" fill="#353637" d="M 48.5,37.5 C 49.5,37.5 50.5,37.5 51.5,37.5C 51.5,45.1667 51.5,52.8333 51.5,60.5C 50.5,60.5 49.5,60.5 48.5,60.5C 48.5,52.8333 48.5,45.1667 48.5,37.5 Z"/></g>
<g><path style="opacity:1" fill="#3f4040" d="M 29.5,64.5 C 38.8333,64.5 48.1667,64.5 57.5,64.5C 57.5,65.8333 57.5,67.1667 57.5,68.5C 48.1667,68.5 38.8333,68.5 29.5,68.5C 29.5,67.1667 29.5,65.8333 29.5,64.5 Z"/></g>
<g><path style="opacity:1" fill="#363638" d="M 35.5,72.5 C 36.5,72.5 37.5,72.5 38.5,72.5C 38.5,87.8333 38.5,103.167 38.5,118.5C 37.5,118.5 36.5,118.5 35.5,118.5C 35.5,103.167 35.5,87.8333 35.5,72.5 Z"/></g>
<g><path style="opacity:1" fill="#434343" d="M 42.5,72.5 C 43.8309,79.803 44.4976,87.4697 44.5,95.5C 44.1667,103.167 43.8333,110.833 43.5,118.5C 42.5006,103.181 42.1673,87.8478 42.5,72.5 Z"/></g>
<g><path style="opacity:1" fill="#363638" d="M 48.5,72.5 C 49.5,72.5 50.5,72.5 51.5,72.5C 51.5,87.8333 51.5,103.167 51.5,118.5C 50.5,118.5 49.5,118.5 48.5,118.5C 48.5,103.167 48.5,87.8333 48.5,72.5 Z"/></g>
<g><path style="opacity:1" fill="#3d3d3d" d="M 13.5,122.5 C 33.5,122.5 53.5,122.5 73.5,122.5C 73.5,125.833 73.5,129.167 73.5,132.5C 72.1266,132.657 70.7932,132.49 69.5,132C 74.0399,127.97 73.3733,125.137 67.5,123.5C 66.1552,124.347 65.1552,125.513 64.5,127C 50.5,127.667 36.5,127.667 22.5,127C 20.3682,122.823 17.7016,122.656 14.5,126.5C 15.373,128.413 16.373,130.247 17.5,132C 16.2068,132.49 14.8734,132.657 13.5,132.5C 13.5,129.167 13.5,125.833 13.5,122.5 Z"/></g>
<g><path style="opacity:1" fill="#000000" d="M 24.5,123.5 C 37.1842,123.168 49.8508,123.501 62.5,124.5C 56.1667,124.833 49.8333,125.167 43.5,125.5C 36.7963,125.496 30.463,124.83 24.5,123.5 Z"/></g>
<g><path style="opacity:1" fill="#212321" d="M 18.5,125.5 C 26.5542,139.934 34.8875,154.268 43.5,168.5C 52.1726,154.492 60.3393,140.159 68,125.5C 68.9246,126.047 69.7579,126.713 70.5,127.5C 62.3991,141.37 54.5657,155.37 47,169.5C 46.1368,172.269 45.6368,175.102 45.5,178C 46.796,190.504 46.796,203.004 45.5,215.5C 44.1667,215.5 42.8333,215.5 41.5,215.5C 40.2163,203.17 40.2163,190.836 41.5,178.5C 41.1936,175.468 40.6936,172.468 40,169.5C 32.8006,155.137 24.9673,141.137 16.5,127.5C 17.2427,126.818 17.9094,126.151 18.5,125.5 Z"/></g>
<g><path style="opacity:1" fill="#3a3b3c" d="M 35.5,131.5 C 36.5,131.5 37.5,131.5 38.5,131.5C 38.5,135.5 38.5,139.5 38.5,143.5C 37.5,143.5 36.5,143.5 35.5,143.5C 35.5,139.5 35.5,135.5 35.5,131.5 Z"/></g>
<g><path style="opacity:1" fill="#434443" d="M 42.5,131.5 C 43.7943,133.048 44.4609,135.048 44.5,137.5C 44.1667,139.5 43.8333,141.5 43.5,143.5C 42.5091,139.555 42.1758,135.555 42.5,131.5 Z"/></g>
<g><path style="opacity:1" fill="#3a3b3c" d="M 48.5,131.5 C 49.5,131.5 50.5,131.5 51.5,131.5C 51.5,135.5 51.5,139.5 51.5,143.5C 50.5,143.5 49.5,143.5 48.5,143.5C 48.5,139.5 48.5,135.5 48.5,131.5 Z"/></g>
<g><path style="opacity:1" fill="#1c1d1b" d="M 64.5,144.5 C 66.1667,144.5 67.8333,144.5 69.5,144.5C 69.5,150.5 69.5,156.5 69.5,162.5C 67.8333,162.5 66.1667,162.5 64.5,162.5C 64.5,156.5 64.5,150.5 64.5,144.5 Z"/></g>
<g><path style="opacity:1" fill="#424141" d="M 48.5,155.5 C 45.1667,155.5 41.8333,155.5 38.5,155.5C 37.6091,154.739 36.9424,153.739 36.5,152.5C 41.1667,151.167 45.8333,151.167 50.5,152.5C 50.0576,153.739 49.3909,154.739 48.5,155.5 Z"/></g>
<g><path style="opacity:1" fill="#2a2b29" d="M 38.5,155.5 C 41.8333,155.5 45.1667,155.5 48.5,155.5C 47.2907,158.721 45.624,161.721 43.5,164.5C 41.376,161.721 39.7093,158.721 38.5,155.5 Z"/></g>
<g><path style="opacity:1" fill="#3f403f" d="M 24.5,151.5 C 25.9778,151.238 27.3112,151.571 28.5,152.5C 29.4143,154.664 30.581,156.664 32,158.5C 33.3368,162.026 33.8368,165.692 33.5,169.5C 35.1667,169.5 36.8333,169.5 38.5,169.5C 38.5,170.833 38.5,172.167 38.5,173.5C 33.8333,173.5 29.1667,173.5 24.5,173.5C 24.5,166.167 24.5,158.833 24.5,151.5 Z"/></g>
<g><path style="opacity:1" fill="#3a3b3b" d="M 57.5,153.5 C 58.4816,156.962 58.815,160.629 58.5,164.5C 56.8333,164.5 55.1667,164.5 53.5,164.5C 54.0007,160.505 55.3341,156.838 57.5,153.5 Z"/></g>
<g><path style="opacity:1" fill="#3b3c3b" d="M 49.5,168.5 C 53.8333,168.5 58.1667,168.5 62.5,168.5C 62.5,170.5 62.5,172.5 62.5,174.5C 57.8215,174.666 53.1548,174.499 48.5,174C 47.6681,172.091 48.0015,170.258 49.5,168.5 Z"/></g>
<g><path style="opacity:1" fill="#222422" d="M 6.5,215.5 C 19.8333,214.833 19.8333,214.167 6.5,213.5C 6.5,206.5 6.5,199.5 6.5,192.5C 10.5,192.167 10.5,191.833 6.5,191.5C 6.5,186.5 6.5,181.5 6.5,176.5C 10.1667,176.5 13.8333,176.5 17.5,176.5C 17.5,189.833 17.5,203.167 17.5,216.5C 13.6286,216.815 9.96192,216.482 6.5,215.5 Z"/></g>
<g><path style="opacity:1" fill="#424242" d="M 23.5,182.5 C 28.8333,182.5 34.1667,182.5 39.5,182.5C 39.5,183.5 39.5,184.5 39.5,185.5C 34.1667,185.5 28.8333,185.5 23.5,185.5C 23.5,184.5 23.5,183.5 23.5,182.5 Z"/></g>
<g><path style="opacity:1" fill="#3e3e3e" d="M 47.5,182.5 C 53.2055,182.171 58.8722,182.505 64.5,183.5C 59.001,185.283 53.3343,185.95 47.5,185.5C 47.5,184.5 47.5,183.5 47.5,182.5 Z"/></g>
<g><path style="opacity:1" fill="#3f3f3f" d="M 23.5,186.5 C 28.8333,186.5 34.1667,186.5 39.5,186.5C 39.5,194.167 39.5,201.833 39.5,209.5C 34.1667,209.5 28.8333,209.5 23.5,209.5C 23.5,201.833 23.5,194.167 23.5,186.5 Z"/></g>
<g><path style="opacity:1" fill="#3b3b3b" d="M 47.5,186.5 C 51.5,186.5 55.5,186.5 59.5,186.5C 59.5,187.5 59.5,188.5 59.5,189.5C 56.5,189.5 53.5,189.5 50.5,189.5C 50.5,190.5 50.5,191.5 50.5,192.5C 53.8333,192.5 57.1667,192.5 60.5,192.5C 60.5,197.5 60.5,202.5 60.5,207.5C 61.9778,207.238 63.3112,207.571 64.5,208.5C 58.8722,209.495 53.2055,209.829 47.5,209.5C 47.5,201.833 47.5,194.167 47.5,186.5 Z"/></g>
<g><path style="opacity:1" fill="#3b3c3b" d="M 63.5,186.5 C 64.8221,186.33 65.9887,186.663 67,187.5C 67.4983,190.817 67.665,194.15 67.5,197.5C 69.9892,197.298 72.3225,197.798 74.5,199C 75.5536,200.388 75.7203,201.888 75,203.5C 70.9341,204.464 66.7675,204.797 62.5,204.5C 62.2114,198.409 62.5447,192.409 63.5,186.5 Z"/></g>
<g><path style="opacity:1" fill="#6a6a6a" d="M 69.5,189.5 C 75.1667,189.5 80.8333,189.5 86.5,189.5C 86.5,194.167 86.5,198.833 86.5,203.5C 83.8333,203.5 81.1667,203.5 78.5,203.5C 78.5471,197.547 75.5471,194.547 69.5,194.5C 69.5,192.833 69.5,191.167 69.5,189.5 Z"/></g>
<g><path style="opacity:1" fill="#0b0c0c" d="M 25.5,190.5 C 29.1667,190.5 32.8333,190.5 36.5,190.5C 36.5,192.5 36.5,194.5 36.5,196.5C 32.8333,196.5 29.1667,196.5 25.5,196.5C 25.5,194.5 25.5,192.5 25.5,190.5 Z"/></g>
<g><path style="opacity:1" fill="#0c0d0c" d="M 49.5,197.5 C 52.5,197.5 55.5,197.5 58.5,197.5C 58.5,199.5 58.5,201.5 58.5,203.5C 55.5,203.5 52.5,203.5 49.5,203.5C 49.5,201.5 49.5,199.5 49.5,197.5 Z"/></g>
<g><path style="opacity:1" fill="#0d0e0c" d="M 25.5,199.5 C 29.1667,199.5 32.8333,199.5 36.5,199.5C 36.5,201.167 36.5,202.833 36.5,204.5C 32.8333,204.5 29.1667,204.5 25.5,204.5C 25.5,202.833 25.5,201.167 25.5,199.5 Z"/></g>
<g><path style="opacity:1" fill="#5a5a5a" d="M 6.5,213.5 C 19.8333,214.167 19.8333,214.833 6.5,215.5C 6.5,214.833 6.5,214.167 6.5,213.5 Z"/></g>
<g><path style="opacity:1" fill="#414241" d="M 49.5,246.5 C 48.6762,242.688 48.1762,238.688 48,234.5C 45,227.833 42,227.833 39,234.5C 38.8227,238.356 38.3227,242.023 37.5,245.5C 37.3337,238.159 37.5003,230.826 38,223.5C 40.2645,222.084 41.4312,220.084 41.5,217.5C 42.8333,217.5 44.1667,217.5 45.5,217.5C 45.5688,220.084 46.7355,222.084 49,223.5C 49.4997,231.159 49.6664,238.826 49.5,246.5 Z"/></g>
<g><path style="opacity:1" fill="#1c1c1b" d="M 49.5,246.5 C 49.5,247.167 49.5,247.833 49.5,248.5C 45.5,253.833 41.5,253.833 37.5,248.5C 37.5,247.5 37.5,246.5 37.5,245.5C 38.3227,242.023 38.8227,238.356 39,234.5C 42,227.833 45,227.833 48,234.5C 48.1762,238.688 48.6762,242.688 49.5,246.5 Z"/></g>
<g><path style="opacity:1" fill="#88231f" d="M 42.5,245.5 C 45.6741,245.952 46.0075,246.952 43.5,248.5C 41.4807,247.867 41.1474,246.867 42.5,245.5 Z"/></g>
<g><path style="opacity:1" fill="#424242" d="M 37.5,248.5 C 41.5,253.833 45.5,253.833 49.5,248.5C 49.5,250.5 49.5,252.5 49.5,254.5C 45.5,254.5 41.5,254.5 37.5,254.5C 37.5,252.5 37.5,250.5 37.5,248.5 Z"/></g>
</svg>

<svg width="96" height="264" xmlns="http://www.w3.org/2000/svg" style="shape-rendering:geometricPrecision;text-rendering:geometricPrecision;image-rendering:optimizeQuality;fill-rule:evenodd;clip-rule:evenodd" viewBox="0 0 96 264"><path fill="#030202" d="M30.5-.5h4q1.5 4 3 0h4q1.5 4 3 0h4q1.5 4 3 0h5q.481 2.322 3 2a60.7 60.7 0 0 0 2 16 43.4 43.4 0 0 1-2 8 43.4 43.4 0 0 1 2 8q-3.918 16.903 0 33.5a326 326 0 0 0-2 47.5h22v27h-6v28h-5a38.2 38.2 0 0 1 2 11 63.1 63.1 0 0 1 18 1.5q3.488 2.708 5 6.5v16q-2.34 4.362-7 6.5-7.984.749-16 .5v6a145 145 0 0 0-17 .5 20.5 20.5 0 0 0 2.5 3.5q.75 20.994.5 42h-30v-14h-6v-5h6q-.25-11.511.5-23a20.5 20.5 0 0 0 2.5-3.5 32.5 32.5 0 0 0-8-.5v5h-24v-53h13v-5h-3a292 292 0 0 0 2-23h-6v-4h-3v-7h3v-16h22q.25-21.006-.5-42-1.632-2.68-1.5-6 3.94-16.346 0-33a43.4 43.4 0 0 1 2-8 43.4 43.4 0 0 1-2-8 60.7 60.7 0 0 0 2-16q2.518.322 3-2" style="opacity:1"/><path fill="#393a3a" d="M42.5 9.5q1.63.18 2 2l-1 2q-1.393-1.783-1-4" style="opacity:1"/><path fill="#3a3b3c" d="M35.5 22.5h3v6h-3z" style="opacity:1"/><path fill="#434443" d="M42.5 22.5q1.79.705 2 3l-1 3a9.86 9.86 0 0 1-1-6" style="opacity:1"/><path fill="#3a3b3c" d="M48.5 22.5h3v6h-3z" style="opacity:1"/><path fill="#2d2f2d" d="M29.5 32.5a197 197 0 0 1 28 1l-14 1q-7.576-.01-14-2" style="opacity:1"/><path fill="#353637" d="M35.5 37.5h3v23h-3z" style="opacity:1"/><path fill="#424242" d="M42.5 37.5q1.985 5.157 2 11.5l-1 11.5a133 133 0 0 1-1-23" style="opacity:1"/><path fill="#353637" d="M48.5 37.5h3v23h-3z" style="opacity:1"/><path fill="#3f4040" d="M29.5 64.5h28v4h-28z" style="opacity:1"/><path fill="#363638" d="M35.5 72.5h3v46h-3z" style="opacity:1"/><path fill="#434343" d="M42.5 72.5q1.996 10.955 2 23l-1 23a530 530 0 0 1-1-46" style="opacity:1"/><path fill="#363638" d="M48.5 72.5h3v46h-3z" style="opacity:1"/><path fill="#3d3d3d" d="M13.5 122.5h60v10a8.4 8.4 0 0 1-4-.5q6.81-6.045-2-8.5-2.017 1.27-3 3.5-21 1-42 0-3.198-6.266-8-.5a44 44 0 0 0 3 5.5 8.4 8.4 0 0 1-4 .5z" style="opacity:1"/><path d="M24.5 123.5q19.026-.498 38 1l-19 1q-10.056-.005-19-2" style="opacity:1"/><path fill="#212321" d="M18.5 125.5a1412 1412 0 0 0 25 43 680 680 0 0 0 24.5-43 11.4 11.4 0 0 1 2.5 2q-12.15 20.805-23.5 42a33.8 33.8 0 0 0-1.5 8.5 181.3 181.3 0 0 1 0 37.5h-4a178.2 178.2 0 0 1 0-37 71 71 0 0 0-1.5-9 529 529 0 0 0-23.5-42 31 31 0 0 0 2-2" style="opacity:1"/><path fill="#3a3b3c" d="M35.5 131.5h3v12h-3z" style="opacity:1"/><path fill="#434443" d="M42.5 131.5q1.94 2.322 2 6l-1 6a36.9 36.9 0 0 1-1-12" style="opacity:1"/><path fill="#3a3b3c" d="M48.5 131.5h3v12h-3z" style="opacity:1"/><path fill="#1c1d1b" d="M64.5 144.5h5v18h-5z" style="opacity:1"/><path fill="#424141" d="M48.5 155.5h-10q-1.336-1.142-2-3 7-2 14 0-.664 1.858-2 3" style="opacity:1"/><path fill="#2a2b29" d="M38.5 155.5h10a35 35 0 0 1-5 9 35 35 0 0 1-5-9" style="opacity:1"/><path fill="#3f403f" d="M24.5 151.5q2.217-.393 4 1a27 27 0 0 0 3.5 6q2.006 5.288 1.5 11h5v4h-14z" style="opacity:1"/><path fill="#3a3b3b" d="M57.5 153.5q1.473 5.193 1 11h-5q.75-5.993 4-11" style="opacity:1"/><path fill="#3b3c3b" d="M49.5 168.5h13v6a98.4 98.4 0 0 1-14-.5q-1.248-2.863 1-5.5" style="opacity:1"/><path fill="#222422" d="M6.5 215.5q20-1 0-2v-21q6-.5 0-1v-15h11v40q-5.807.473-11-1" style="opacity:1"/><path fill="#424242" d="M23.5 182.5h16v3h-16z" style="opacity:1"/><path fill="#3e3e3e" d="M47.5 182.5a73 73 0 0 1 17 1q-8.249 2.675-17 2z" style="opacity:1"/><path fill="#3f3f3f" d="M23.5 186.5h16v23h-16z" style="opacity:1"/><path fill="#3b3b3b" d="M47.5 186.5h12v3h-9v3h10v15q2.217-.393 4 1a73 73 0 0 1-17 1z" style="opacity:1"/><path fill="#3b3c3b" d="M63.5 186.5q1.983-.255 3.5 1 .747 4.975.5 10 3.735-.303 7 1.5 1.58 2.082.5 4.5-6.1 1.446-12.5 1a86.8 86.8 0 0 1 1-18" style="opacity:1"/><path fill="#6a6a6a" d="M69.5 189.5h17v14h-8q.07-8.93-9-9z" style="opacity:1"/><path fill="#0b0c0c" d="M25.5 190.5h11v6h-11z" style="opacity:1"/><path fill="#0c0d0c" d="M49.5 197.5h9v6h-9z" style="opacity:1"/><path fill="#0d0e0c" d="M25.5 199.5h11v5h-11z" style="opacity:1"/><path fill="#5a5a5a" d="M6.5 213.5q20 1 0 2z" style="opacity:1"/><path fill="#414241" d="M49.5 246.5q-1.236-5.718-1.5-12-4.5-10-9 0-.266 5.784-1.5 11-.25-11.011.5-22 3.396-2.124 3.5-6h4q.104 3.876 3.5 6 .75 11.489.5 23" style="opacity:1"/><path fill="#1c1c1b" d="M49.5 246.5v2q-6 8-12 0v-3q1.234-5.216 1.5-11 4.5-10 9 0 .264 6.282 1.5 12" style="opacity:1"/><path fill="#88231f" d="M42.5 245.5q4.761.678 1 3-3.03-.95-1-3" style="opacity:1"/><path fill="#424242" d="M37.5 248.5q6 8 12 0v6h-12z" style="opacity:1"/></svg>
